sharp/svg/sim_card.svg

<svg xmlns="http://www.w3.org/2000/svg" width="24" height="24"><path fill="none" d="M0 0h24v24H0V0z"/><g fill="currentColor"><path d="M19.99 2H10L4 8v14h16l-.01-20zM9 19H7v-2h2v2zm8 0h-2v-2h2v2zm-8-4H7v-4h2v4zm4 4h-2v-4h2v4zm0-6h-2v-2h2v2zm4 2h-2v-4h2v4z"/></g></svg>

<?xml version="1.0" encoding="utf-8"?>
<!-- Generator: Adobe Illustrator 19.1.0, SVG Export Plug-In . SVG Version: 6.00 Build 0)  -->
<svg version="1.1" xmlns="http://www.w3.org/2000/svg" xmlns:xlink="http://www.w3.org/1999/xlink" x="0px" y="0px" width="24px"
	 height="24px" viewBox="0 0 24 24" enable-background="new 0 0 24 24" xml:space="preserve">
<g id="Bounding_Boxes">
	<g id="ui_x5F_spec_x5F_header_copy_3">
	</g>
	<path fill="none" d="M0,0h24v24H0V0z"/>
</g>
<g id="Sharp" fill="currentColor">
	<g id="ui_x5F_spec_x5F_header_copy_4">
	</g>
	<path d="M19.99,2H10L4,8v14h16L19.99,2z M9,19H7v-2h2V19z M17,19h-2v-2h2V19z M9,15H7v-4h2V15z M13,19h-2v-4h2V19z M13,13h-2v-2h2
		V13z M17,15h-2v-4h2V15z"/>
</g>
</svg>
